apps/ui-icons/svgs/side-panel.svg

<svg width="24" height="24" viewBox="0 0 24 24" fill="none" xmlns="http://www.w3.org/2000/svg">
<path d="M13 12L8 16V8L13 12Z" fill="#171D26"/>
<path fill-rule="evenodd" clip-rule="evenodd" d="M19.6143 3C20.9379 3 22.0144 4.07588 22.0146 5.39941L22 18.6533C21.9999 19.9769 20.9233 21 19.5996 21L4.40039 20.9463C3.07669 20.9463 2.00008 19.9233 2 18.5996L2.01465 5.34668C2.01465 4.02303 3.09045 2.94645 4.41406 2.94629L19.6143 3ZM4 18.999H15V5H4V18.999ZM17 18.999H20V5H17V18.999Z" fill="#171D26"/>
</svg>

<svg xmlns="http://www.w3.org/2000/svg" width="24" height="24" fill="none" viewBox="0 0 24 24">
  <path fill="#171D26" d="m13 12-5 4V8l5 4Z"/>
  <path fill="#171D26" fill-rule="evenodd" d="M19.614 3c1.324 0 2.4 1.076 2.4 2.4L22 18.652C22 19.977 20.923 21 19.6 21l-15.2-.054c-1.323 0-2.4-1.023-2.4-2.346l.015-13.253c0-1.324 1.075-2.4 2.4-2.4l15.2.053ZM4 18.999h11V5H4v13.999Zm13 0h3V5h-3v13.999Z" clip-rule="evenodd"/>
</svg>
